X:1
T:James Gibb editions
T:Psalm 125 (Becker) - Schütz
%%score [ ( 1 2 ) ( 3 4 ) ]
L:1/8
Q:1/4=98
M:2/2
K:F
V:1 treble nm="Soprano Alto" snm="S. A."
V:2 treble 
V:3 bass nm="Tenor Bass" snm="T. B."
V:4 bass 
V:1
"^Cornelius Becker\n(1561-1604)""^Psalm 125, SWV 230""^Heinrich Schütz\n(1585-1672)" G2 | %1
w: ~Die|
w: die|
 c2 _e2 d2 c2 | B4 G2 G2 | A2 c2 c2 =B2 | c6 :| c2 | d2 c2 B2 A2 | G4 E2 G2 | c2 B2 A2 G2 | %9
w: nur ver- trau- end|stel- len auf|Gott ihr Zu- ver-|sicht,|||set- zet, doch|stehn sie un- ver-|
w: wird kein Un- glück|fäl- len, sie|blei- ben e- wig-|lich.|||||
 F4 D2 D2 | F2 G2 A2 B2 | (c3 d _e2) c2 | =B2 c2 c2 B2 | c6 |] %14
w: let- zet, gleich-|wie der Berg Si-|on, * * gleich-|wie der Berg Si-|on.|
w: |||||
V:2
 _E2 | G2 G2 G2 G2 | G4 D2 D2 | F2 G2 G2 G2 | G6 :| F2 | F2 F2 F2 F2 | D4 C2 E2 | F2 F2 F2 _E2 | %9
w: |||||Der|Feind stark an sie|||
 D4 B,2 B,2 | D2 _E2 F2 F2 | G6 G2 | G2 _E2 _A2 G2 | G6 |] %14
w: |||||
V:3
 C2 | _E2 C2 D2 E2 | D4 B,2 B,2 | C2 _E2 D2 D2 | C6 :| A,2 | B,2 C2 D2 C2 | %7
[M:2/2]"^2. Es liegt ein schön Gebirge rings um Jerusalem,\nGottes Volk sich nicht fürchtet, obgleich der Feind herkäm,\nweil es Gott selbst beschirmet, wenn Unglück einher stürmet,\nbleibt doch die Kirch bestehn.\n\n3. Der Gottlos will bezwingen den Frommen durch sein Macht,\nes wird ihm nicht gelingen, Gott legt ihm seine Pracht,\nsonst der Gerecht sein Hände zuletzt auch mit möcht wenden\nzur Ungerechtigkeit.\n\n4. Die guten frommen Herzen, die dein Wort haben lieb,\nbewahr vor Leid und Schmerzen, Gnad ihnen reichlich gib,\naber die dein Wort hassen und gehen auf krummen Straßen,\nden'n wirst du nimmer hold." =B,4 C2 C2 | %8
 C2 D2 C2 C2 | A,4 G,2 G,2 | A,2 C2 C2 D2 | (_E3 D C2) E2 | D2 C2 F2 D2 | E6 |] %14
V:4
 C,2 | C,2 C,2 =B,,2 C,2 | G,4 G,2 G,2 | F,2 C,2 G,2 G,2 | C,6 :| F,2 | B,,2 A,,2 B,,2 F,2 | %7
[M:2/2] G,4 C,2 C,2 | A,,2 B,,2 F,2 C,2 | D,4 G,,2 G,,2 | D,2 C,2 F,2 D,2 | C,6 C,2 | %12
 G,2 _A,2 F,2 G,2 | C,6 |] %14

